svgs/solid/angle-90.svg

<svg xmlns="http://www.w3.org/2000/svg" viewBox="0 0 448 512"><!-- Font Awesome Pro 6.0.0-alpha2 by @fontawesome - https://fontawesome.com License - https://fontawesome.com/license (Commercial License) --><path d="M312.584 384H361.719C354.475 346.611 340.893 311.541 322.332 279.66L281.229 304.322C295.428 328.855 306.107 355.607 312.584 384ZM263.623 277.566L304.936 252.779C283.436 222.809 257.187 196.561 227.215 175.061L202.428 216.371C225.779 233.6 246.393 254.215 263.623 277.566ZM416 416H64V64C64 46.327 49.673 32 32 32H32C14.327 32 0 46.327 0 64V448C0 465.673 14.327 480 32 480H416C433.673 480 448 465.673 448 448V448C448 430.327 433.673 416 416 416ZM200.346 157.672C168.461 139.111 133.393 125.529 96 118.283V167.416C124.395 173.893 151.15 184.572 175.686 198.775L200.346 157.672Z"/></svg>

<svg xmlns="http://www.w3.org/2000/svg" viewBox="0 0 448 512"><!--! Font Awesome Pro 6.0.0-alpha3 by @fontawesome - https://fontawesome.com License - https://fontawesome.com/license (Commercial License) --><path d="M312.6 384h49.13c-7.244-37.39-20.83-72.46-39.39-104.3l-41.1 24.66C295.4 328.9 306.1 355.6 312.6 384zM263.6 277.6l41.31-24.79c-21.5-29.97-47.75-56.22-77.72-77.72L202.4 216.4C225.8 233.6 246.4 254.2 263.6 277.6zM416 416H64V63.1C64 46.33 49.67 32 32 32S0 46.33 0 63.1V448c0 17.67 14.33 32 32 32h384C433.7 480 448 465.7 448 448S433.7 416 416 416zM200.3 157.7C168.5 139.1 133.4 125.5 96 118.3v49.13c28.39 6.477 55.15 17.16 79.68 31.36L200.3 157.7z"/></svg>
